X:10151
T:Majko, Majko
M:7/8
Z:John Chambers <jc@eddie.mit.edu> http://eddie.mit.edu/~jc/music/
K:C
L:1/8
R:Cocek
P:Bb:
|: "E"EEE ^GA Bc | (B3 B4) | Bcd ed cB | "Am"(c3 c4) |
| d2c ed cB | "F"(F3 F4) | A^GF AG FD | "E"(E3 E4) | z8 :|
|: "E"(E3 E2) ^GA | (B3 B2) Bc | (d3 d)e/d/ cB | "Am"(c3 c4) :: "C"e2 e e2 e2 | ede f2 e2 |
| "(G3 G4)"(g3 g2) fd | "C"(e3 e4) | "Am"c2 c c2 c2 | "Dm"d2c B2 A2 | A^GF AG FD | "E"(E3 E4) | z8 :|
